X: 5
T:Compère Guilleri
C:Paroles et musique : tradition antérieure au XVIIIe siècle
Z:Transcrit et/ou corrigé par Michel BELLON - 2006-04-28
Z:Pour toute observation mailto:galouvielle@free.fr
M:2/4
L:1/8
K:F
z2 zC | "F"FFFA | F2 FC | FFFA | FF/2F/2 FF | "C7"cccc |
"Bb"d2 BB | BBBd | "C7"dc/2B/2 Ac | "F"cB/2A/2 GB | "Bb"BA/2G/2 FA |
"C7"G/2F/2E/2D/2 C2- | "F"C>F FF | "C7"G>G GG | "F"A>F Ac | "Bb"B2 "C7"(AG) | "F"F2 z2 |]

%%footer $D   Galouvielle-MBe 2006 \n-- (--)
